X:1
T: Ben Newe
C:Alexander Walker
R:Reel
Q:232
K:C
M:4/4
L:1/8
|:G|c2ed cG EC|ce dc dD DG|c2ed cG Aa|ge df ec cG|
c2ed cG EC|ce dc dD DG|c2ed cG Aa|ge df ec cf|
ec gc ac gc|c'c gc ed df|ec ge ac gc|fd gf ec cf|
ec gc ac gc|c'c gc ed df|ec eg fa gf|ec dB cC C:|
